X: 14625
T: Gan Ainm
R: slip jig
M: 9/8
K: Amajor
|:c2 A AGA ecA|c/d/ec aec fga|c2 A AGA ecA|B^AB fdB Bcd:|
c^Bc aec aec|Ac/d/e aec fga|Ac/d/e aec aec|B^AB fdB Bcd:|

